X: 331
T:In and Out the Harbor
M:C|
L:1/8
R:reel
D:The Irish Tradition: The Corner House
Z:Devin McCabe
K:EDor
BdcA B~E3|BAFA B~E3|BdcA B~E3|F/2E/2D FA BAFA:|
!Beec decd|B~E3 BAFA|Beec decd|1BAFA dcdA:|2BAFA dBAd||
